asset/file.svg

<svg width="55" height="56" viewBox="0 0 55 56" fill="none" xmlns="http://www.w3.org/2000/svg">
<path d="M23.9933 29.8724V28.5867C23.9933 28.2251 24.2746 27.9439 24.6362 27.9439H38.779C39.1406 27.9439 39.4219 28.2251 39.4219 28.5867V29.8724C39.4219 30.234 39.1406 30.5153 38.779 30.5153H24.6362C24.2746 30.5153 23.9933 30.234 23.9933 29.8724Z" fill="white"/>
<path d="M24.6362 33.0867H38.779C39.1406 33.0867 39.4219 33.368 39.4219 33.7296V35.0153C39.4219 35.3769 39.1406 35.6581 38.779 35.6581H24.6362C24.2746 35.6581 23.9933 35.3769 23.9933 35.0153V33.7296C23.9933 33.368 24.2746 33.0867 24.6362 33.0867Z" fill="white"/>
<path d="M24.6362 38.2296H38.779C39.1406 38.2296 39.4219 38.5108 39.4219 38.8724V40.1581C39.4219 40.5198 39.1406 40.801 38.779 40.801H24.6362C24.2746 40.801 23.9933 40.5198 23.9933 40.1581V38.8724C23.9933 38.5108 24.2746 38.2296 24.6362 38.2296Z" fill="white"/>
<path fill-rule="evenodd" clip-rule="evenodd" d="M16.279 21.8148C12.1838 21.8148 8.86401 18.495 8.86401 14.3998C8.86401 10.3046 12.1838 6.9848 16.279 6.9848C19.723 6.9848 22.6186 9.33277 23.4524 12.5153H36.2076C37.2723 12.5153 38.7589 13.1381 39.5022 13.8814L45.7701 20.1492C46.5134 20.8925 47.1362 22.3791 47.1362 23.4439V46.5867C47.1362 47.6515 46.2723 48.5153 45.2076 48.5153H18.2076C17.1429 48.5153 16.279 47.6515 16.279 46.5867L16.279 21.8148ZM18.8504 21.3568C21.4729 20.3871 23.3971 17.977 23.6626 15.0867H34.279V23.4439C34.279 24.5086 35.1429 25.3724 36.2076 25.3724H44.5647V45.9439H18.8504V21.3568ZM37.6741 15.6894C37.5335 15.5488 37.192 15.368 36.8504 15.2474V22.801H44.404C44.2835 22.4595 44.1027 22.118 43.9621 21.9773L37.6741 15.6894ZM17.279 15.3998H21.279V13.3998H17.279V9.39984H15.279V13.3998H11.279V15.3998H15.279V19.3998H17.279V15.3998Z" fill="white"/>
</svg>

<svg width="55" height="56" fill="none" xmlns="http://www.w3.org/2000/svg"><path d="M23.993 29.872v-1.285c0-.362.282-.643.643-.643H38.78c.362 0 .643.281.643.643v1.285a.635.635 0 0 1-.643.643H24.636a.635.635 0 0 1-.643-.643zM24.636 33.087H38.78c.362 0 .643.281.643.643v1.285a.635.635 0 0 1-.643.643H24.636a.635.635 0 0 1-.643-.643V33.73c0-.362.282-.643.643-.643zM24.636 38.23H38.78c.362 0 .643.28.643.642v1.286a.635.635 0 0 1-.643.643H24.636a.635.635 0 0 1-.643-.643v-1.286c0-.361.282-.642.643-.642z" fill="#fff"/><path fill-rule="evenodd" clip-rule="evenodd" d="M16.279 21.815a7.415 7.415 0 1 1 7.173-9.3h12.756c1.064 0 2.55.623 3.294 1.366l6.268 6.268c.743.743 1.366 2.23 1.366 3.295v23.143a1.93 1.93 0 0 1-1.928 1.928h-27a1.93 1.93 0 0 1-1.929-1.928V21.815zm2.571-.458a7.421 7.421 0 0 0 4.813-6.27h10.616v8.357a1.93 1.93 0 0 0 1.929 1.928h8.357v20.572H18.85V21.357zm18.824-5.668c-.14-.14-.482-.321-.824-.442v7.554h7.554c-.12-.341-.301-.683-.442-.824l-6.288-6.288zM17.28 15.4h4v-2h-4v-4h-2v4h-4v2h4v4h2v-4z" fill="#fff"/></svg>
